!!!OTL: Graf und Nonne (Die Nonne)
!!!OTL-incipit:Es welken alle Blaetter,
!!!ARE: Europa, Mitteleuropa, Deutschland (BRD), Niedersachsen, Hildesheim, Mehle
!!!YOR: 8, S. 98
!!    1945 aufgezeichnet
!!!SCT: Q0155l
!!!TXL: @@DE
!!!YEM: Copyright 1995, estate of Helmut Schaffrath.
**kern	**text
*ICvox	*
*M4/4	*
*k[f#]	*
*G:	*
{4d	Es
=1	=1
4.g	wel-
8d	-ken
4B	al-
4d	-le
=2	=2
(<4g	Blät-
4b)	.
4b}	-ter.
{4dd	sie
=3	=3
4.a	fal-
8g	-len
4f#	al-
4g	-le
=4	=4
2a	ab,
4r}	.
{4d	Es
=5	=5
4.g	wel-
8d	-ken
4B	al-
4d	-le
=6	=6
(<4g	Blät-
4b)	.
4b}	-ter.
{4dd	sie
=7	=7
4.a	fal-
8g	-len
4f#	al-
4g	-le
=8	=8
2a	ab,
4r}	.
{8gL	denn
8aJ	mein
=9	=9
4.b	Schatʒ
8b	hat
4b	mich
4b	ver-
=10	=10
(4b	-las-
4dd)	.
4dd}	-sen,
{8ccL	denn
8bJ	mein
=11	=11
4.a	Schatʒ
8b	hat
4cc	mich
4cc	ver-
=12	=12
(4cc	-las-
4ee)	.
4dd}	-sen,
{4cc	ins
=13	=13
4.b	Klo-
8a	-ster
4b	wollt
4cc	gie
=14	=14
2dd}	gehn,
{2ee	ins
=15	=15
4.dd	Klo-
8b	-ster
4cc	wollt
4dd	sie
=16	=16
2b	gehn.
4r}	.
==	==
!!!AGN: Ballade, Standesunterschied, vergebliche Werbung, Liebe, Klage
!!!ONB: ESAC (Essen Associative Code) Database: BALLADE
!!!AMT: simple quadruple
!!!AIN: vox
!!!EED: Helmut Schaffrath
!!!EEV: 1.0
!!@@COMMENT:"Vorgesungen von Minna Grʒegoreck (76 Jahre), 1945;
!!aufgeʒeichnet von Franʒ Steinbrecher in
!!Mehle/Hildesheim (Sammlung Paul Alpers; DVA = A207 866)"
!!@@END:
!!!source: Deutsche Volkslieder mit ihren Melodien. Herausgegeben vom Deutschen Volksliedarchiv. Achter Teil. Freiburg/Breisgau 1988.
!!!page: 98
!!!ENC: Anna Maria Matuszewska
!!!EEV: 2025/03/10
*-	*-
